assets/icons/qvision/lock_outline.svg

<svg xmlns="http://www.w3.org/2000/svg" enable-background="new 0 0 24 24" height="24" viewBox="0 0 24 24" width="24"><g><rect fill="none" height="24" width="24" x="0"/></g><g><g><g><path d="M12,17c1.1,0,2-0.9,2-2s-0.9-2-2-2s-2,0.9-2,2S10.9,17,12,17z M18,8h-1V6c0-2.76-2.24-5-5-5S7,3.24,7,6v2H6 c-1.1,0-2,0.9-2,2v10c0,1.1,0.9,2,2,2h12c1.1,0,2-0.9,2-2V10C20,8.9,19.1,8,18,8z M8.9,6c0-1.71,1.39-3.1,3.1-3.1 s3.1,1.39,3.1,3.1v2H8.9V6z M18,20H6V10h12V20z"/></g></g></g></svg>

<svg width="24" height="24" viewBox="0 0 24 24" fill="none" xmlns="http://www.w3.org/2000/svg">
<g clip-path="url(#clip0_147_4401)">
<path d="M12 17C13.1 17 14 16.1 14 15C14 13.9 13.1 13 12 13C10.9 13 10 13.9 10 15C10 16.1 10.9 17 12 17ZM18 8H17V6C17 3.24 14.76 1 12 1C9.24 1 7 3.24 7 6V8H6C4.9 8 4 8.9 4 10V20C4 21.1 4.9 22 6 22H18C19.1 22 20 21.1 20 20V10C20 8.9 19.1 8 18 8ZM8.9 6C8.9 4.29 10.29 2.9 12 2.9C13.71 2.9 15.1 4.29 15.1 6V8H8.9V6ZM18 20H6V10H18V20Z" fill="#323232"/>
</g>
<defs>
<clipPath id="clip0_147_4401">
<rect width="24" height="24" fill="white"/>
</clipPath>
</defs>
</svg>
